src/assets/img/meter1.svg

<svg width="204" height="204" viewBox="0 0 204 204" fill="none" xmlns="http://www.w3.org/2000/svg">
<path d="M187.639 69.9021C193.092 67.8586 199.226 70.6143 200.696 76.2484C206.238 97.4863 204.802 120.051 196.436 140.546C186.737 164.31 168.435 183.543 145.182 194.409C121.928 205.275 95.4333 206.975 70.9821 199.169C46.5309 191.364 25.9211 174.628 13.2642 152.299C0.607328 129.97 -3.16618 103.69 2.6965 78.7016C8.55918 53.7134 23.627 31.854 44.8941 17.4842C66.1612 3.11439 92.0641 -2.7094 117.435 1.17464C139.317 4.52444 159.415 14.8827 174.791 30.5466C178.869 34.702 178.083 41.3805 173.529 45.009C168.975 48.6374 162.385 47.8272 158.195 43.7832C146.212 32.2155 130.877 24.5642 114.244 22.0179C94.1181 18.9368 73.5701 23.5566 56.6994 34.9558C39.8288 46.355 27.8758 63.6955 23.2251 83.518C18.5744 103.34 21.5679 124.188 31.6082 141.901C41.6486 159.614 57.9979 172.89 77.3943 179.082C96.7908 185.274 117.809 183.925 136.255 175.305C154.701 166.686 169.219 151.429 176.914 132.578C183.273 116.999 184.584 99.9117 180.815 83.688C179.497 78.0164 182.187 71.9457 187.639 69.9021Z" fill="url(#paint0_linear_16_339)"/>
<path d="M66.08 99.16C66.08 103.804 69.32 107.512 74.036 107.512C74.648 107.512 75.08 107.44 75.332 107.296L69.896 115H77.528L83.072 106.18C84.476 103.912 85.376 101.32 85.376 98.98C85.376 93.724 81.308 89.8 75.728 89.8C70.256 89.8 66.08 93.76 66.08 99.16ZM72.416 98.908C72.416 97.072 73.892 95.668 75.764 95.668C77.636 95.668 79.076 97.108 79.076 98.944C79.076 100.78 77.636 102.184 75.764 102.184C73.892 102.184 72.416 100.744 72.416 98.908ZM94.3971 104.92C94.9371 104.056 95.9811 103.372 97.3131 103.372C99.1491 103.372 100.481 104.668 100.481 106.432C100.481 108.196 99.1491 109.6 97.3131 109.6C95.4051 109.6 94.3611 108.34 94.2531 107.224H87.9171C88.0251 112.228 91.6971 115.504 97.4211 115.504C102.785 115.504 106.889 111.508 106.889 106.108C106.889 101.644 103.685 97.936 98.9691 97.936C97.4211 97.936 96.0531 98.332 94.8651 99.088L95.3331 95.92H105.161V90.304H90.3651L88.5291 103.696L94.3971 104.92ZM121.357 96.028C121.357 92.608 118.585 89.944 115.021 89.944C111.457 89.944 108.685 92.608 108.685 96.028C108.685 99.448 111.457 102.112 115.021 102.112C118.585 102.112 121.357 99.448 121.357 96.028ZM117.109 96.028C117.109 97.288 116.209 98.152 115.021 98.152C113.833 98.152 112.933 97.288 112.933 96.028C112.933 94.768 113.833 93.904 115.021 93.904C116.209 93.904 117.109 94.768 117.109 96.028ZM134.857 90.268H129.349L110.989 115H116.497L134.857 90.268ZM124.489 109.24C124.489 112.66 127.261 115.324 130.825 115.324C134.389 115.324 137.161 112.66 137.161 109.24C137.161 105.82 134.389 103.156 130.825 103.156C127.261 103.156 124.489 105.82 124.489 109.24ZM128.737 109.24C128.737 107.98 129.637 107.116 130.825 107.116C132.013 107.116 132.913 107.98 132.913 109.24C132.913 110.5 132.013 111.364 130.825 111.364C129.637 111.364 128.737 110.5 128.737 109.24Z" fill="white"/>
<defs>
<linearGradient id="paint0_linear_16_339" x1="-12.4348" y1="91.2145" x2="228.124" y2="92.098" gradientUnits="userSpaceOnUse">
<stop stop-color="#AA367C"/>
<stop offset="1" stop-color="#4A2FBD"/>
</linearGradient>
</defs>
</svg>

<?xml version="1.0" encoding="utf-8"?>
<!-- Generator: Adobe Illustrator 27.7.0, SVG Export Plug-In . SVG Version: 6.00 Build 0)  -->
<svg version="1.1" id="Layer_1" xmlns="http://www.w3.org/2000/svg" xmlns:xlink="http://www.w3.org/1999/xlink" x="0px" y="0px"
	 width="204px" height="204px" viewBox="0 0 204 204" style="enable-background:new 0 0 204 204;" xml:space="preserve">
<style type="text/css">
	.st0{fill:url(#SVGID_1_);}
	.st1{fill:#FFFFFF;}
</style>
<linearGradient id="SVGID_1_" gradientUnits="userSpaceOnUse" x1="-2.305850e-04" y1="102" x2="204.0002" y2="102">
	<stop  offset="2.770450e-07" style="stop-color:#C8FF6A"/>
	<stop  offset="1" style="stop-color:#196715"/>
</linearGradient>
<path class="st0" d="M187.6,69.9c5.5-2,11.6,0.7,13.1,6.3c5.5,21.2,4.1,43.8-4.3,64.3c-9.7,23.8-28,43-51.3,53.9
	c-23.3,10.9-49.7,12.6-74.2,4.8c-24.5-7.8-45.1-24.5-57.7-46.9C0.6,130-3.2,103.7,2.7,78.7c5.9-25,20.9-46.8,42.2-61.2
	S92.1-2.7,117.4,1.2c21.9,3.3,42,13.7,57.4,29.4c4.1,4.2,3.3,10.8-1.3,14.5c-4.6,3.6-11.1,2.8-15.3-1.2c-12-11.6-27.3-19.2-44-21.8
	C94.1,18.9,73.6,23.6,56.7,35C39.8,46.4,27.9,63.7,23.2,83.5c-4.7,19.8-1.7,40.7,8.4,58.4c10,17.7,26.4,31,45.8,37.2
	c19.4,6.2,40.4,4.8,58.9-3.8c18.4-8.6,33-23.9,40.7-42.7c6.4-15.6,7.7-32.7,3.9-48.9C179.5,78,182.2,71.9,187.6,69.9z"/>
<path class="st1" d="M66.1,99.2c0,4.6,3.2,8.4,8,8.4c0.6,0,1-0.1,1.3-0.2l-5.4,7.7h7.6l5.5-8.8c1.4-2.3,2.3-4.9,2.3-7.2
	c0-5.3-4.1-9.2-9.6-9.2C70.3,89.8,66.1,93.8,66.1,99.2z M72.4,98.9c0-1.8,1.5-3.2,3.3-3.2s3.3,1.4,3.3,3.3s-1.4,3.2-3.3,3.2
	S72.4,100.7,72.4,98.9z M94.4,104.9c0.5-0.9,1.6-1.5,2.9-1.5c1.8,0,3.2,1.3,3.2,3.1s-1.3,3.2-3.2,3.2c-1.9,0-3-1.3-3.1-2.4h-6.3
	c0.1,5,3.8,8.3,9.5,8.3c5.4,0,9.5-4,9.5-9.4c0-4.5-3.2-8.2-7.9-8.2c-1.5,0-2.9,0.4-4.1,1.2l0.5-3.2h9.8v-5.6H90.4l-1.8,13.4
	L94.4,104.9z M121.4,96c0-3.4-2.8-6.1-6.3-6.1c-3.6,0-6.3,2.7-6.3,6.1s2.8,6.1,6.3,6.1C118.6,102.1,121.4,99.4,121.4,96z M117.1,96
	c0,1.3-0.9,2.1-2.1,2.1c-1.2,0-2.1-0.9-2.1-2.1s0.9-2.1,2.1-2.1C116.2,93.9,117.1,94.8,117.1,96z M134.9,90.3h-5.5L111,115h5.5
	L134.9,90.3z M124.5,109.2c0,3.4,2.8,6.1,6.3,6.1c3.6,0,6.3-2.7,6.3-6.1c0-3.4-2.8-6.1-6.3-6.1C127.3,103.2,124.5,105.8,124.5,109.2
	z M128.7,109.2c0-1.3,0.9-2.1,2.1-2.1s2.1,0.9,2.1,2.1c0,1.3-0.9,2.1-2.1,2.1S128.7,110.5,128.7,109.2z"/>
</svg>
